X:1
T:Poor Wandering Boy, The
T:Poor Wandering Boy, The
T:James Buckley
C:James Buckley
L:1/8
M:6/8
K:A
V:1 treble 
V:1
 E | A>GA B>GE | c>Bc e>dB | A>cE F>dB | A>BG A2 || e | e>cA E>ce | dBG E2 E | A>GA c>BA | %9
 A>GA B2 E | A>GA B>GE | c>Bc e>dG | A>cE F>dB | ABG A2 || %14

